FINK
CUT[EIN JAEGER ZOG ZU WALDE]
REG[Europa, Mitteleuropa, Deutschland]
KEY[F0673  08 Bb 4/4]
MEL[-5_  -5_.-3-5_1_  -5__-3_
    -5_  -5_.-5-6-5-6-7  1__0_
    3_  2_023212  3__1_
    3_  2_.-2-2_-3-4#  -5__0_
    -5_  2_.21-7-6-7  1__-5_
    -5_  4_.43234  2__0_
    -5_  3_.32_2_  1_.-7-6_
    2_  1_.11-7-6-7  1__0_ //] >>
FCT[Staende -, Jaeger - Lied, Liebe]
